material/.icons/material/equalizer.svg

<svg xmlns="http://www.w3.org/2000/svg" viewBox="0 0 24 24"><path d="M10 20h4V4h-4v16m-6 0h4v-8H4v8M16 9v11h4V9h-4z"/></svg>

<?xml version="1.0" encoding="UTF-8"?><!DOCTYPE svg PUBLIC "-//W3C//DTD SVG 1.1//EN" "http://www.w3.org/Graphics/SVG/1.1/DTD/svg11.dtd"><svg xmlns="http://www.w3.org/2000/svg" xmlns:xlink="http://www.w3.org/1999/xlink" version="1.1" id="mdi-equalizer" width="24" height="24" viewBox="0 0 24 24"><path d="M10,20H14V4H10V20M4,20H8V12H4V20M16,9V20H20V9H16Z" /></svg>
